X: 28259
T: Mrs. Judge
R: jig
M: 6/8
K: Eminor
ED|B,2E2E2G2|FGFED2B2|BAGF AGFE|"tr"D4B,2B,2|
E2F2G2A2|BcBAG2e2|efg2B2g2|"tr"f4e2e2|
edB2B2e2|dedBG2B2|AGFGA2G2|"tr"F4E2D2|
B2G2c2A2|d2B2e2B2|cBAG BAGF|E2EDE2:|
|:GA|B2B2c2B2|BAGFG2d2|efg2B2g2|efg2B2g2|
fga2d2a2|gfge bgbe|dBde BABc|"tr"B6g2|
gfefg2f2|e3fe2dc|B2cBA2G2|G2F2E2D2|
EFGAB2e2|DEFGA2d2|BABG BAGF|E2EDE2:|
|:EGB EGB|GA/G/F/E/ FB,B,|DdF EeB|GA/G/F/G/E3:|
|:Bdg Bdg|g/f/e/d/e/f/ gdB|cc/B/A/G/ AdD|BeE e2d|
e/d/B/d/e d/B/A/B/d|B/A/G/A/B/G/ AFD|E/F/GE F/G/AF|G/||

